X: 189
T:The Peddlar's Punch
M:2/2
L:1/8
C:Ed Reavy
S:The Collected Compositions of Ed Reavy
R:Reel
N:Ed likes a title that can be taken in more
N:than one way. In this one you don't know which punch of the peddler
N:is the most lethal. He might pack quite a wallop if you cross him,
N:but take just one good sup of his poteen and you'll be lucky if you
N:don't take total leave of your senses.
Z:Joseph Reavy
K:G
DF|G2 BG DGBF|=F2  [FA]F CFAF|G2 GB DGBc|dgfd (3cBA FA|G2 BF DGBG|=F2 [F
A
]F CFAF|GABc (3dcB (3cBA |1 GBAF DGGF:|2 GBAF DGGA||B2 ge fdcB|A=F (3FEF
 ABcA|G2 ge fd^cd|gfga gfdc|Bdge fdcB|A=F (3FEF ABcA|GABc defa|gbag f
dcA:||

